assets/illustrations/default/time-2.svg

<svg xmlns="http://www.w3.org/2000/svg" width="1080" height="1081" fill="none"><path fill="#C5D9FB" d="M630.33 723.762c167.746 0 303.73-136.828 303.73-305.614S798.076 112.534 630.33 112.534 326.6 249.362 326.6 418.148s135.984 305.614 303.73 305.614"/><path fill="#84EBBC" d="M367.346 223.763c35.73 0 64.695-29.145 64.695-65.096S403.076 93.57 367.346 93.57s-64.695 29.145-64.695 65.097 28.965 65.096 64.695 65.096"/><path fill="#fff" d="M859.593 445.738c23.489 0 42.531-19.042 42.531-42.531s-19.042-42.531-42.531-42.531c-23.49 0-42.531 19.042-42.531 42.531s19.041 42.531 42.531 42.531"/><path fill="#8C3A03" d="m672.614 246.816 68.68-8.145 5.87 4.622 15.339 129.215-50.731 6.02-2.461-20.725-23.185 2.739c-2.292-1.807-3.578-2.814-5.871-4.622l-12.263-103.252 4.622-5.871z"/><path fill="#000" d="m759.446 346.754-28.497 2.684-29.708-14.202-34.983-86.367 80.105-11.406z"/><path fill="#8C3A03" d="m697.126 328.034-18.247 2.334-3.008-23.515 25.475-3.259 2.084 16.287a7.286 7.286 0 0 1-6.304 8.153M1075.49 694.791l-20.58-25.104 21.18 36.995-5.15 5.312-25.23-31.74 15.21 45.439-7.25 3.504-22.8-42.401 6.56 39.493-7.7 2.423-22.94-60.572-11.163 23.166-6.131-.913 7.79-46.389-5.684-14.444 47.808-19.775 21.86 45.718 18.73 33.641zM496.195 616.123l-26.857 12.021-26.856-1.099-23.167 11.275-17.967 42.383-8.312 9.635 8.685 6.151 2.348-1.436 9.282 6.542 2.572-1.491 10.959 6.486 5.162-2.74 9.375 4.697 79.098-43.407z"/><path fill="url(#a)" d="m375.832 641.993 30.938-.54 26.876-10.437 20.091 1.006 12.916 25.981-7.697.708-12.916-11.984-14.37-1.174-33.287 38.599-33.995-.802z"/><path fill="#FCAA73" d="m486.98 688.252 8.928-9.654-19.271-11.854-4.567 5.871zM489.517 691.308l-9.859 9.916-18.675-24.173 7.66-6.989z"/><path fill="#FCAA73" d="m476.978 697.087-9.281 7.716-11.108-17.594 6.56-5.032z"/><path fill="#FCAA73" d="m465.985 701.952-8.294 6.188-6.561-13.755 5.722-3.56z"/><path fill="url(#b)" d="m432.039 703.849 6.449-3.466 2.926 8.163z"/><path fill="url(#c)" d="m415.914 700.103 9.449-6.449 1.51 12.935z"/><path fill="url(#d)" d="m404.058 695.054 10.642-6.746-1.361 13.288z"/><path fill="#8C3A03" d="m393.034 690.339-.839-6.337 9.412.13z"/><path fill="#fff" d="M603.886 441.346c7.544 22.245 31.693 34.162 53.938 26.618 22.244-7.545 34.161-31.693 26.617-53.938s-31.693-34.162-53.938-26.618-34.162 31.694-26.617 53.938M461.351 461.877c7.545 22.244 31.694 34.161 53.938 26.617s34.162-31.693 26.618-53.938-31.693-34.162-53.938-26.617-34.162 31.693-26.618 53.938"/><path fill="#fff" d="m650.281 469.792-12.139-84.191-141.34 20.378 12.139 84.192z"/><path fill="#fff" d="m478.098 483.546 48.553-69.844-114.561-79.638-48.553 69.844z"/><path fill="#8C3A03" d="m301.968 329.663 30.76 10.365-37.574-20.129 1.543-7.231 38.229 13.517-36.997-30.449 4.287-6.816 41.816 23.85-26.513-29.997 5.239-6.138 51.583 39.174-2.827-25.56 5.683-2.479 18.006 43.456 12.481 9.228-30.033 42.124-42.786-27.156-33.725-18.58z"/><path fill="#fff" d="m702.922 627.306 185.426.335-28.758-266.965-229.261 25.85zM965.095 546.025c23.489 0 42.535-19.042 42.535-42.531s-19.046-42.531-42.535-42.531-42.531 19.042-42.531 42.531 19.042 42.531 42.531 42.531"/><path fill="#fff" d="m933.308 532.641 58.821-61.446-103.154-98.749-58.822 61.446z"/><path fill="#fff" d="m978.405 642.831 77.845-34.237-51.4-121.331-77.866 34.218z"/><path fill="#1968F0" d="m716.805 681 176.107-11.351-8.238-83.981-186.507 25.403z"/><path fill="#072F73" d="m916.376 939.745-49.856-1.994c-.745 4.082-3.634 32.429-18.936 33.38-25.291 1.566-15.078 16.327-15.078 16.327h92.555l-8.685-47.694zM714.477 951.207l-63.498-13.456c-.876 4.082-4.287 32.429-22.365 33.38-29.877 1.566-17.818 16.327-17.818 16.327H720.18l-5.721-36.251z"/><path fill="#1968F0" d="M629.581 956.521 589.79 826.56c-7.306-31.479 1.77-64.132 24.284-87.317l89.051-91.735-4.957-36.418 89.535-12.189 10.884 79.993-119.672 123.288a4.24 4.24 0 0 0-1.1 3.951l42.774 145.001-90.989 5.387z"/><path fill="#1968F0" d="m840.352 952.699-68.623-107.968c-16.327-25.105-19.775-56.826-9.245-84.857L800.747 658l-6.15-56.826 89.833-9.729 8.462 78.204-45.83 122.002a4.3 4.3 0 0 0 .41 3.839l90.355 149.977-97.493 7.232z"/><path fill="url(#e)" d="m789.361 688.361 41.096-9.729-67.953 81.241z"/><path fill="url(#f)" d="m667.21 511.378 8.219-45.662L883.836 585.78l-185.669 25.291z"/><path fill="url(#g)" d="m877.532 480.59-8.909-49.949 50.303 90.746z"/><path fill="#8C3A03" d="m674.063 298.947-6.728 30.305 12.804.764z"/><path fill="#072F73" d="M311.019 987.458c171.77 0 311.018-137.519 311.018-307.157S482.789 373.145 311.019 373.145C139.248 373.145 0 510.663 0 680.301s139.248 307.157 311.019 307.157"/><path fill="url(#h)" d="M311.015 946.415c151.304 0 273.961-119.143 273.961-266.114S462.319 414.187 311.015 414.187 37.054 533.33 37.054 680.301 159.71 946.415 311.015 946.415"/><path fill="#000" fill-rule="evenodd" d="M309.486 673.464V478.722h-13.671v208.413h208.413v-13.671z" clip-rule="evenodd"/><defs><linearGradient id="a" x1="422.995" x2="290.161" y1="656.762" y2="672.68" gradientUnits="userSpaceOnUse"><stop stop-color="#FCAA73"/><stop offset=".15" stop-color="#FBA66D"/><stop offset=".35" stop-color="#F99C5D"/><stop offset=".57" stop-color="#F68B43"/><stop offset=".8" stop-color="#F2731E"/><stop offset=".95" stop-color="#F06305"/></linearGradient><linearGradient id="b" x1="439.563" x2="429.486" y1="704.513" y2="705.165" gradientUnits="userSpaceOnUse"><stop stop-color="#8C3A03"/><stop offset=".14" stop-color="#863702"/><stop offset=".32" stop-color="#763102"/><stop offset=".52" stop-color="#5C2601"/><stop offset=".74" stop-color="#371601"/><stop offset=".96" stop-color="#080300"/><stop offset="1"/></linearGradient><linearGradient id="c" x1="427.199" x2="409.199" y1="700.414" y2="695.679" gradientUnits="userSpaceOnUse"><stop stop-color="#8C3A03"/><stop offset=".14" stop-color="#863702"/><stop offset=".32" stop-color="#763102"/><stop offset=".52" stop-color="#5C2601"/><stop offset=".74" stop-color="#371601"/><stop offset=".96" stop-color="#080300"/><stop offset="1"/></linearGradient><linearGradient id="d" x1="411.908" x2="398.708" y1="694.701" y2="693.147" gradientUnits="userSpaceOnUse"><stop stop-color="#8C3A03"/><stop offset=".14" stop-color="#863702"/><stop offset=".32" stop-color="#763102"/><stop offset=".52" stop-color="#5C2601"/><stop offset=".74" stop-color="#371601"/><stop offset=".96" stop-color="#080300"/><stop offset="1"/></linearGradient><linearGradient id="e" x1="808.428" x2="753.26" y1="727.854" y2="688.156" gradientUnits="userSpaceOnUse"><stop offset=".2" stop-color="#1968F0"/><stop offset=".32" stop-color="#1864E9"/><stop offset=".48" stop-color="#155CD6"/><stop offset=".67" stop-color="#104EB8"/><stop offset=".88" stop-color="#0A3B8D"/><stop offset="1" stop-color="#072F73"/></linearGradient><linearGradient id="f" x1="817.076" x2="678.188" y1="473.991" y2="665.996" gradientUnits="userSpaceOnUse"><stop offset=".27" stop-color="#fff"/><stop offset=".39" stop-color="#FAFBFE"/><stop offset=".52" stop-color="#ECF2FD"/><stop offset=".67" stop-color="#D4E3FC"/><stop offset=".79" stop-color="#BDD4FB"/></linearGradient><linearGradient id="g" x1="929" x2="853.715" y1="451.767" y2="503.628" gradientUnits="userSpaceOnUse"><stop offset=".47" stop-color="#fff"/><stop offset=".61" stop-color="#E8F0FD"/><stop offset=".83" stop-color="#BDD4FB"/></linearGradient><linearGradient id="h" x1="415.305" x2="203.532" y1="358.157" y2="1011.84" gradientUnits="userSpaceOnUse"><stop stop-color="#fff"/><stop offset=".32" stop-color="#FCFDFE"/><stop offset=".55" stop-color="#F2F6FE"/><stop offset=".76" stop-color="#E2ECFD"/><stop offset=".95" stop-color="#CBDDFB"/><stop offset="1" stop-color="#C5D9FB"/></linearGradient></defs></svg>

<svg width="1080" height="1081" viewBox="0 0 1080 1081" fill="none" xmlns="http://www.w3.org/2000/svg">
<path d="M630.33 723.762C798.076 723.762 934.06 586.934 934.06 418.148C934.06 249.362 798.076 112.534 630.33 112.534C462.584 112.534 326.6 249.362 326.6 418.148C326.6 586.934 462.584 723.762 630.33 723.762Z" fill="#C5D9FB"/>
<path d="M367.346 223.763C403.076 223.763 432.041 194.618 432.041 158.667C432.041 122.715 403.076 93.5703 367.346 93.5703C331.616 93.5703 302.651 122.715 302.651 158.667C302.651 194.618 331.616 223.763 367.346 223.763Z" fill="#84EBBC"/>
<path d="M859.593 445.738C883.082 445.738 902.124 426.696 902.124 403.207C902.124 379.718 883.082 360.676 859.593 360.676C836.103 360.676 817.062 379.718 817.062 403.207C817.062 426.696 836.103 445.738 859.593 445.738Z" fill="white"/>
<path d="M672.614 246.816L741.294 238.671L747.164 243.293L762.503 372.508L711.772 378.528L709.311 357.803L686.126 360.542C683.834 358.735 682.548 357.728 680.255 355.92L667.992 252.668L672.614 246.797V246.816Z" fill="#8C3A03"/>
<path d="M759.446 346.754L730.949 349.438L701.241 335.236L666.258 248.869L746.363 237.463L759.446 346.754Z" fill="black"/>
<path d="M697.126 328.034L678.879 330.368L675.871 306.853L701.346 303.594L703.43 319.881C703.941 323.874 701.119 327.523 697.126 328.034Z" fill="#8C3A03"/>
<path d="M1075.49 694.791L1054.91 669.687L1076.09 706.682L1070.94 711.994L1045.71 680.254L1060.92 725.693L1053.67 729.197L1030.87 686.796L1037.43 726.289L1029.73 728.712L1006.79 668.14L995.627 691.306L989.496 690.393L997.286 644.004L991.602 629.56L1039.41 609.785L1061.27 655.503L1080 689.144L1075.49 694.791Z" fill="#8C3A03"/>
<path d="M496.195 616.123L469.338 628.144L442.482 627.045L419.315 638.32L401.348 680.703L393.036 690.338L401.721 696.489L404.069 695.053L413.351 701.595L415.923 700.104L426.882 706.59L432.044 703.85L441.419 708.547L520.517 665.14L496.195 616.123Z" fill="#8C3A03"/>
<path d="M375.832 641.993L406.77 641.453L433.646 631.016L453.737 632.022L466.653 658.003L458.956 658.711L446.04 646.727L431.67 645.553L398.383 684.152L364.388 683.35L375.832 641.993Z" fill="url(#paint0_linear_18020_2553)"/>
<path d="M486.98 688.252L495.908 678.598L476.637 666.744L472.07 672.615L486.98 688.252Z" fill="#FCAA73"/>
<path d="M489.517 691.308L479.658 701.224L460.983 677.051L468.643 670.062L489.517 691.308Z" fill="#FCAA73"/>
<path d="M476.978 697.087L467.697 704.803L456.589 687.209L463.149 682.177L476.978 697.087Z" fill="#FCAA73"/>
<path d="M465.985 701.952L457.691 708.14L451.13 694.385L456.852 690.825L465.985 701.952Z" fill="#FCAA73"/>
<path d="M432.039 703.849L438.488 700.383L441.414 708.546L432.039 703.849Z" fill="url(#paint1_linear_18020_2553)"/>
<path d="M415.914 700.103L425.363 693.654L426.873 706.589L415.914 700.103Z" fill="url(#paint2_linear_18020_2553)"/>
<path d="M404.058 695.054L414.7 688.308L413.339 701.596L404.058 695.054Z" fill="url(#paint3_linear_18020_2553)"/>
<path d="M393.034 690.339L392.195 684.002L401.607 684.132L393.034 690.339Z" fill="#8C3A03"/>
<path d="M603.886 441.346C611.43 463.591 635.579 475.508 657.824 467.964C680.068 460.419 691.985 436.271 684.441 414.026C676.897 391.781 652.748 379.864 630.503 387.408C608.258 394.953 596.341 419.102 603.886 441.346Z" fill="white"/>
<path d="M461.351 461.877C468.896 484.121 493.045 496.038 515.289 488.494C537.534 480.95 549.451 456.801 541.907 434.556C534.362 412.311 510.214 400.394 487.969 407.939C465.724 415.483 453.807 439.632 461.351 461.877Z" fill="white"/>
<path d="M650.281 469.792L638.142 385.601L496.802 405.979L508.941 490.171L650.281 469.792Z" fill="white"/>
<path d="M478.098 483.546L526.651 413.702L412.09 334.064L363.537 403.908L478.098 483.546Z" fill="white"/>
<path d="M301.968 329.663L332.728 340.028L295.154 319.899L296.697 312.668L334.926 326.185L297.929 295.736L302.216 288.92L344.032 312.77L317.519 282.773L322.758 276.635L374.341 315.809L371.514 290.249L377.197 287.77L395.203 331.226L407.684 340.454L377.651 382.578L334.865 355.422L301.14 336.842L301.968 329.663Z" fill="#8C3A03"/>
<path d="M702.922 627.306L888.348 627.641L859.59 360.676L630.329 386.526L702.922 627.306Z" fill="white"/>
<path d="M965.095 546.025C988.584 546.025 1007.63 526.983 1007.63 503.494C1007.63 480.005 988.584 460.963 965.095 460.963C941.606 460.963 922.564 480.005 922.564 503.494C922.564 526.983 941.606 546.025 965.095 546.025Z" fill="white"/>
<path d="M933.308 532.641L992.129 471.195L888.975 372.446L830.153 433.892L933.308 532.641Z" fill="white"/>
<path d="M978.405 642.831L1056.25 608.594L1004.85 487.263L926.984 521.481L978.405 642.831Z" fill="white"/>
<path d="M716.805 681L892.912 669.649L884.674 585.668L698.167 611.071L716.805 681Z" fill="#1968F0"/>
<path d="M916.376 939.745L866.52 937.751C865.775 941.833 862.886 970.18 847.584 971.131C822.293 972.697 832.506 987.458 832.506 987.458H925.061L916.376 939.764V939.745Z" fill="#072F73"/>
<path d="M714.477 951.207L650.979 937.751C650.103 941.833 646.692 970.18 628.614 971.131C598.737 972.697 610.796 987.458 610.796 987.458H720.18L714.459 951.207H714.477Z" fill="#072F73"/>
<path d="M629.581 956.521L589.79 826.56C582.484 795.081 591.56 762.428 614.074 739.243L703.125 647.508L698.168 611.09L787.703 598.901L798.587 678.894L678.915 802.182C677.89 803.226 677.48 804.717 677.815 806.133L720.589 951.134L629.6 956.521H629.581Z" fill="#1968F0"/>
<path d="M840.352 952.699L771.729 844.731C755.402 819.626 751.954 787.905 762.484 759.874L800.747 658L794.597 601.174L884.43 591.445L892.892 669.649L847.062 791.651C846.577 792.918 846.745 794.353 847.472 795.49L937.827 945.467L840.334 952.699H840.352Z" fill="#1968F0"/>
<path d="M789.361 688.361L830.457 678.632L762.504 759.873L789.361 688.361Z" fill="url(#paint4_linear_18020_2553)"/>
<path d="M667.21 511.378L675.429 465.716L883.836 585.78L698.167 611.071L667.21 511.378Z" fill="url(#paint5_linear_18020_2553)"/>
<path d="M877.532 480.59L868.623 430.641L918.926 521.387L877.532 480.59Z" fill="url(#paint6_linear_18020_2553)"/>
<path d="M674.063 298.947L667.335 329.252L680.139 330.016L674.063 298.947Z" fill="#8C3A03"/>
<path d="M311.019 987.458C482.789 987.458 622.037 849.939 622.037 680.301C622.037 510.663 482.789 373.145 311.019 373.145C139.248 373.145 0 510.663 0 680.301C0 849.939 139.248 987.458 311.019 987.458Z" fill="#072F73"/>
<path d="M311.015 946.415C462.319 946.415 584.976 827.272 584.976 680.301C584.976 533.33 462.319 414.187 311.015 414.187C159.71 414.187 37.0537 533.33 37.0537 680.301C37.0537 827.272 159.71 946.415 311.015 946.415Z" fill="url(#paint7_linear_18020_2553)"/>
<path fill-rule="evenodd" clip-rule="evenodd" d="M309.486 673.464V478.722H295.815V687.135H504.228V673.464H309.486Z" fill="black"/>
<defs>
<linearGradient id="paint0_linear_18020_2553" x1="422.995" y1="656.762" x2="290.161" y2="672.68" gradientUnits="userSpaceOnUse">
<stop stop-color="#FCAA73"/>
<stop offset="0.15" stop-color="#FBA66D"/>
<stop offset="0.35" stop-color="#F99C5D"/>
<stop offset="0.57" stop-color="#F68B43"/>
<stop offset="0.8" stop-color="#F2731E"/>
<stop offset="0.95" stop-color="#F06305"/>
</linearGradient>
<linearGradient id="paint1_linear_18020_2553" x1="439.563" y1="704.513" x2="429.486" y2="705.165" gradientUnits="userSpaceOnUse">
<stop stop-color="#8C3A03"/>
<stop offset="0.14" stop-color="#863702"/>
<stop offset="0.32" stop-color="#763102"/>
<stop offset="0.52" stop-color="#5C2601"/>
<stop offset="0.74" stop-color="#371601"/>
<stop offset="0.96" stop-color="#080300"/>
<stop offset="1"/>
</linearGradient>
<linearGradient id="paint2_linear_18020_2553" x1="427.199" y1="700.414" x2="409.199" y2="695.679" gradientUnits="userSpaceOnUse">
<stop stop-color="#8C3A03"/>
<stop offset="0.14" stop-color="#863702"/>
<stop offset="0.32" stop-color="#763102"/>
<stop offset="0.52" stop-color="#5C2601"/>
<stop offset="0.74" stop-color="#371601"/>
<stop offset="0.96" stop-color="#080300"/>
<stop offset="1"/>
</linearGradient>
<linearGradient id="paint3_linear_18020_2553" x1="411.908" y1="694.701" x2="398.708" y2="693.147" gradientUnits="userSpaceOnUse">
<stop stop-color="#8C3A03"/>
<stop offset="0.14" stop-color="#863702"/>
<stop offset="0.32" stop-color="#763102"/>
<stop offset="0.52" stop-color="#5C2601"/>
<stop offset="0.74" stop-color="#371601"/>
<stop offset="0.96" stop-color="#080300"/>
<stop offset="1"/>
</linearGradient>
<linearGradient id="paint4_linear_18020_2553" x1="808.428" y1="727.854" x2="753.26" y2="688.156" gradientUnits="userSpaceOnUse">
<stop offset="0.2" stop-color="#1968F0"/>
<stop offset="0.32" stop-color="#1864E9"/>
<stop offset="0.48" stop-color="#155CD6"/>
<stop offset="0.67" stop-color="#104EB8"/>
<stop offset="0.88" stop-color="#0A3B8D"/>
<stop offset="1" stop-color="#072F73"/>
</linearGradient>
<linearGradient id="paint5_linear_18020_2553" x1="817.076" y1="473.991" x2="678.188" y2="665.996" gradientUnits="userSpaceOnUse">
<stop offset="0.27" stop-color="white"/>
<stop offset="0.39" stop-color="#FAFBFE"/>
<stop offset="0.52" stop-color="#ECF2FD"/>
<stop offset="0.67" stop-color="#D4E3FC"/>
<stop offset="0.79" stop-color="#BDD4FB"/>
</linearGradient>
<linearGradient id="paint6_linear_18020_2553" x1="929" y1="451.767" x2="853.715" y2="503.628" gradientUnits="userSpaceOnUse">
<stop offset="0.47" stop-color="white"/>
<stop offset="0.61" stop-color="#E8F0FD"/>
<stop offset="0.83" stop-color="#BDD4FB"/>
</linearGradient>
<linearGradient id="paint7_linear_18020_2553" x1="415.305" y1="358.157" x2="203.532" y2="1011.84" gradientUnits="userSpaceOnUse">
<stop stop-color="white"/>
<stop offset="0.32" stop-color="#FCFDFE"/>
<stop offset="0.55" stop-color="#F2F6FE"/>
<stop offset="0.76" stop-color="#E2ECFD"/>
<stop offset="0.95" stop-color="#CBDDFB"/>
<stop offset="1" stop-color="#C5D9FB"/>
</linearGradient>
</defs>
</svg>
